apps/www/public/images/career/icons/curious-light.svg

<svg width="49" height="49" viewBox="0 0 49 49" fill="none" xmlns="http://www.w3.org/2000/svg">
<rect x="0.615234" y="0.583008" width="48" height="48" rx="8" fill="#DDF3E4"/>
<circle cx="24.2974" cy="25.7347" r="4.87601" transform="rotate(30 24.2974 25.7347)" fill="#92CEAC"/>
<circle cx="23.2931" cy="24.1459" r="2" transform="rotate(30 23.2931 24.1459)" fill="#299764"/>
<path d="M15.8596 31.5868C16.2515 32.1909 16.7123 32.7633 17.2419 33.2929C21.3146 37.3656 27.9177 37.3656 31.9903 33.2929C36.063 29.2203 36.063 22.6171 31.9903 18.5445C27.9177 14.4718 21.3146 14.4718 17.2419 18.5445C15.7268 20.0596 14.7753 21.9249 14.3875 23.8799M14.3712 27.8737C14.281 27.3985 14.224 26.9183 14.2002 26.4367" stroke="#299764" stroke-width="2" stroke-miterlimit="10" stroke-linejoin="bevel"/>
<path d="M6.03418 25.9185L11.1938 20.7589C18.6062 13.3465 30.6241 13.3465 38.0365 20.7589L43.1961 25.9185L38.0365 31.078C30.6241 38.4904 18.6062 38.4905 11.1938 31.078L6.03418 25.9185Z" stroke="#299764" stroke-width="2" stroke-miterlimit="10" stroke-linejoin="bevel"/>
<path d="M6.03418 19.6809L9.05877 16.6563C17.6503 8.06478 31.5799 8.06478 40.1715 16.6563L43.1961 19.6809" stroke="#92CEAC" stroke-width="2" stroke-miterlimit="10" stroke-linejoin="bevel"/>
</svg>

<svg xmlns="http://www.w3.org/2000/svg" width="49" height="49" fill="none" viewBox="0 0 49 49"><rect width="48" height="48" x=".615" y=".583" fill="#ddf3e4" rx="8"/><circle cx="24.297" cy="25.735" r="4.876" fill="#92ceac" transform="rotate(30 24.297 25.735)"/><circle cx="23.293" cy="24.146" r="2" fill="#299764" transform="rotate(30 23.293 24.146)"/><path stroke="#299764" stroke-linejoin="bevel" stroke-miterlimit="10" stroke-width="2" d="M15.86 31.587c.392.604.852 1.176 1.382 1.706 4.073 4.073 10.676 4.073 14.748 0 4.073-4.073 4.073-10.676 0-14.748-4.072-4.073-10.675-4.073-14.748 0a10.4 10.4 0 0 0-2.855 5.335m-.016 3.994a10.5 10.5 0 0 1-.17-1.437"/><path stroke="#299764" stroke-linejoin="bevel" stroke-miterlimit="10" stroke-width="2" d="m6.034 25.919 5.16-5.16c7.412-7.412 19.43-7.412 26.842 0l5.16 5.16-5.16 5.159c-7.412 7.412-19.43 7.412-26.842 0z"/><path stroke="#92ceac" stroke-linejoin="bevel" stroke-miterlimit="10" stroke-width="2" d="m6.034 19.68 3.025-3.024c8.591-8.591 22.52-8.591 31.113 0l3.024 3.025"/></svg>
